X:2252
T:Brudmarsch efter Johan Norrman, Öjarn
Z:Jon Bergström
R:Marsch
O:Strömsund, Jämtland
S:upptecknat och arrangerat av Anders O Mårtensson Renån
B:Heimbygdas Spelmansförbund, Östersund
M:2/4
K:Fmaj
V:1
AA|:d4 (AGFE) | D4 D2(3dcd | ^c2A2 c2A2 | e4 g4 | (fgfe) f2g2 | a4 (gagf) |
| e2A2 ^c2e2 | a3g f2e2 | [Dd]4 [Dd]3[Dd] |1 [Dd]6 AA :|2 [Dd]6 [Dd]2  |: (cdcB) c2e2 | 
g3g e2c2 | (fg)fe f2a2 | c'3c' a2f2 | (cd)cB c2eg |1 b4 c2de | f4 a3g | f6 f2 :|2
b4 g2e2 | c4 B2(cB) | a2c2 f2(3(fgf) |: e2(3ded ^c2d2 | e2^c2 A4 | d4 A3B |
c4 E4 | (FGFE) F2G2 | A4 ^c4 | (de)d^c d2e2 | (fg)fe f2g2 | a2A2 =B2^c2 | d4 d4 :| 
V:2
I:repbra 0
z2|:[FA]4 (FED^C) | [FA,]4 [FA,]4 | [EA,]2[E^C]2 [EA,]2C2 | [^cA]2[^cA]2 [ec]2[ec]2 | d2^c2 d2[ec]2 | f4 (ef)ed |
| ^c2c2 A2^c2 | ^c3[ec] A3[AG] | [AF]4 [AF]3[AF] |1 [AF]4 F4 :|2 [AF]6 [AF]2  |: E3F E2C2 | 
E3[EC] C2E2 | A2A2 A2F2 | A3A F2A2 | E3G E2[EC]2 |1 E2G2 E3C | A4 F3B | A4 A4:|2
G4 [ce]4 | e4 G2(AG) | F2A2 A2A2 |: ^C2=B2 A2B2 | ^c2E2 C4 | [AF]4 F3F | 
E4 C4 | A,3A, A,2C2 | F4 [GA]4 | F2F[GA] [FA]2A2 | d2(d^c) d2^c2 | ^c2G2 G2[GA]2 | [FA]4 [FA]4 :| 
(:musicend:)
(:music:)
